svgs/duotone/arrow-up-short-wide.svg

<svg xmlns="http://www.w3.org/2000/svg" viewBox="0 0 576 512"><!-- Font Awesome Pro 6.0.0-alpha2 by @fontawesome - https://fontawesome.com License - https://fontawesome.com/license (Commercial License) --><defs><style>.fa-secondary{opacity:.4}</style></defs><path d="M543.998 416H320C302.326 416 288 430.328 288 448S302.326 480 320 480H543.998C561.672 480 575.998 465.672 575.998 448S561.672 416 543.998 416ZM320 96H352C369.674 96 384 81.672 384 64S369.674 32 352 32H320C302.326 32 288 46.328 288 64S302.326 96 320 96ZM320 224H415.998C433.672 224 447.998 209.672 447.998 192S433.672 160 415.998 160H320C302.326 160 288 174.328 288 192S302.326 224 320 224ZM320 352H479.998C497.672 352 511.998 337.672 511.998 320S497.672 288 479.998 288H320C302.326 288 288 302.328 288 320S302.326 352 320 352Z" class="fa-secondary"/><path d="M239.591 138.039C251.527 151.086 250.652 171.352 237.623 183.305C224.607 195.25 204.357 194.344 192.404 181.332L160 145.938V447.969C160 465.672 145.671 480 128 480S96 465.672 96 447.969V145.938L63.595 181.332C57.283 188.215 48.658 191.719 39.986 191.719C32.267 191.719 24.517 188.934 18.377 183.305C5.347 171.352 4.472 151.086 16.408 138.039L104.406 41.945C116.531 28.684 139.468 28.684 151.593 41.945L239.591 138.039Z" class="fa-primary"/></svg>

<svg xmlns="http://www.w3.org/2000/svg" viewBox="0 0 576 512"><!--! Font Awesome Pro 6.3.0 by @fontawesome - https://fontawesome.com License - https://fontawesome.com/license (Commercial License) Copyright 2023 Fonticons, Inc. --><defs><style>.fa-secondary{opacity:.4}</style></defs><path class="fa-primary" d="M239.6 138c11.94 13.05 11.06 33.31-1.969 45.27C224.6 195.3 204.4 194.3 192.4 181.3L160 145.9v302C160 465.7 145.7 480 128 480S96 465.7 96 447.1V145.9L63.6 181.3c-6.312 6.883-14.94 10.39-23.61 10.39c-7.719 0-15.47-2.785-21.61-8.414C5.35 171.4 4.475 151.1 16.41 138l87.1-96.09c12.12-13.26 35.06-13.26 47.19 0L239.6 138z"/><path class="fa-secondary" d="M544 416h-223.1c-17.67 0-32 14.33-32 32s14.33 32 32 32H544c17.67 0 32-14.33 32-32S561.7 416 544 416zM320 96h32c17.67 0 31.1-14.33 31.1-32s-14.33-32-31.1-32h-32c-17.67 0-32 14.33-32 32S302.3 96 320 96zM320 224H416c17.67 0 32-14.33 32-32s-14.33-32-32-32h-95.1c-17.67 0-32 14.33-32 32S302.3 224 320 224zM320 352H480c17.67 0 32-14.33 32-32s-14.33-32-32-32h-159.1c-17.67 0-32 14.33-32 32S302.3 352 320 352z"/></svg>
